public/icons/swift.svg

<svg width="54" height="52" viewBox="0 0 54 52" fill="none" xmlns="http://www.w3.org/2000/svg">
<path d="M53.9962 14.3478C53.993 13.8268 53.987 13.3061 53.972 12.7845C53.9404 11.65 53.8704 10.5051 53.6602 9.3827C53.4469 8.24282 53.0982 7.18292 52.5487 6.14745C52.0092 5.13055 51.304 4.2 50.4628 3.39304C49.6218 2.58608 48.6517 1.90968 47.5912 1.39195C46.5127 0.865398 45.4076 0.530996 44.2204 0.326378C43.0497 0.124114 41.8562 0.057478 40.6726 0.0267766C40.1292 0.0126469 39.5863 0.00671595 39.043 0.0034888C38.3982 0 37.7529 0 37.1082 0H22.8137H16.8918C16.2465 0 15.602 0 14.9573 0.00357602C14.4139 0.00680317 13.8703 0.0127341 13.3277 0.0268638C13.0318 0.0345391 12.7353 0.0444822 12.4387 0.0581758C11.5487 0.0993437 10.6574 0.174789 9.7798 0.326465C8.88939 0.479972 8.04508 0.706395 7.22368 1.03216C6.94991 1.14066 6.6786 1.26033 6.40892 1.39195C5.61353 1.78025 4.86887 2.25778 4.19158 2.81267C3.96582 2.99767 3.74752 3.19121 3.5373 3.39295C2.6959 4.19991 1.9907 5.13046 1.45126 6.14736C0.901718 7.18283 0.553483 8.24273 0.339996 9.38261C0.129964 10.505 0.0601347 11.6499 0.0283117 12.7845C0.0134003 13.306 0.00712664 13.8267 0.00358065 14.3477C-0.000510886 14.9664 3.46518e-05 15.5853 3.46518e-05 16.2038V24.6484V35.5967C3.46518e-05 36.2159 -0.000601809 36.8341 0.00358065 37.4533C0.00712664 37.9742 0.0134003 38.4949 0.0283117 39.0156C0.0601347 40.1508 0.129873 41.2959 0.339996 42.4178C0.553483 43.5574 0.901718 44.6182 1.45126 45.6534C1.9907 46.6706 2.6959 47.6009 3.5373 48.4075C4.37807 49.2148 5.3484 49.8911 6.40901 50.4092C7.48763 50.9358 8.59262 51.2698 9.78007 51.4744C10.9501 51.6764 12.1444 51.7436 13.3278 51.7739C13.8704 51.7878 14.414 51.794 14.9574 51.797C15.6021 51.8014 16.2466 51.8008 16.8919 51.8008H37.1082C37.7529 51.8008 38.3982 51.8014 39.0429 51.797C39.5862 51.794 40.1291 51.7878 40.6725 51.7739C41.8562 51.7436 43.0496 51.6763 44.2203 51.4744C45.4075 51.2698 46.5126 50.9357 47.5911 50.4092C48.6516 49.8912 49.6217 49.2148 50.4627 48.4075C51.304 47.6008 52.0092 46.6706 52.5486 45.6534C53.0981 44.6182 53.4468 43.5574 53.6601 42.4178C53.8703 41.2959 53.9403 40.1508 53.9719 39.0156C53.9868 38.4949 53.9928 37.9743 53.9961 37.4533C54.0003 36.8341 53.9999 36.2159 53.9999 35.5967V16.2038C54 15.5853 54.0003 14.9664 53.9962 14.3478Z" fill="#F05138"/>
<path d="M42.7884 31.9756C42.7872 31.974 42.786 31.9729 42.7846 31.9714C42.8444 31.7764 42.906 31.5826 42.9583 31.3827C45.1995 22.8169 39.7295 12.6897 30.4731 7.35754C34.5295 12.6325 36.323 19.0217 34.7295 24.6092C34.5874 25.1076 34.4165 25.5859 34.2277 26.0508C34.0227 25.9216 33.7645 25.775 33.4177 25.5916C33.4177 25.5916 24.2101 20.138 14.2304 10.4919C13.9686 10.2387 19.552 18.1472 25.8885 24.5691C22.9031 22.9619 14.5833 17.1551 9.31633 12.5307C9.96343 13.566 10.7331 14.5628 11.5791 15.5225C15.9775 20.8733 21.7136 27.4755 28.5856 32.5451C23.7573 35.3796 16.9347 35.6 10.1417 32.5481C8.46157 31.7928 6.88205 30.8814 5.41992 29.8459C8.29536 34.258 12.7239 38.0646 18.114 40.2869C24.5417 42.9367 30.9337 42.757 35.6945 40.3303L35.6907 40.3355C35.7125 40.3224 35.7401 40.308 35.7626 40.2946C35.9581 40.1938 36.1522 40.0911 36.3419 39.9827C38.6293 38.8438 43.1472 37.6883 45.5722 42.2145C46.1661 43.3222 47.4282 37.452 42.7884 31.9756Z" fill="white"/>
</svg>

<svg xmlns="http://www.w3.org/2000/svg" width="54" height="52" fill="none"><path fill="#F05138" d="M53.996 14.348a69.118 69.118 0 0 0-.024-1.564c-.032-1.134-.102-2.279-.312-3.401-.213-1.14-.562-2.2-1.111-3.236a10.904 10.904 0 0 0-2.086-2.754 11.324 11.324 0 0 0-2.872-2.001 12.326 12.326 0 0 0-3.37-1.066c-1.171-.202-2.365-.269-3.548-.3a81.23 81.23 0 0 0-1.63-.023C38.398 0 37.753 0 37.108 0H16.892c-.645 0-1.29 0-1.935.004-.543.003-1.087.009-1.63.023-.295.008-.592.017-.888.031a21.43 21.43 0 0 0-2.66.268c-.89.154-1.734.38-2.555.706a11.371 11.371 0 0 0-3.686 2.36A10.898 10.898 0 0 0 1.45 6.148 11.155 11.155 0 0 0 .34 9.383C.13 10.505.06 11.65.028 12.785a71.747 71.747 0 0 0-.024 1.563C-.001 14.966 0 15.585 0 16.204v19.393c0 .619 0 1.237.004 1.856.003.521.01 1.042.024 1.563.032 1.135.102 2.28.312 3.402.213 1.14.562 2.2 1.111 3.235a10.885 10.885 0 0 0 2.086 2.755c.841.807 1.811 1.483 2.872 2.001 1.079.527 2.184.86 3.371 1.065 1.17.202 2.364.27 3.548.3.542.014 1.086.02 1.63.023.644.004 1.289.004 1.934.004h20.216c.645 0 1.29 0 1.935-.004.543-.003 1.086-.01 1.63-.023 1.183-.03 2.377-.098 3.547-.3 1.188-.204 2.293-.538 3.371-1.065a11.324 11.324 0 0 0 2.872-2.002 10.888 10.888 0 0 0 2.086-2.754c.55-1.035.898-2.096 1.111-3.235.21-1.122.28-2.267.312-3.402.015-.521.02-1.042.024-1.563.004-.619.004-1.237.004-1.856V16.204c0-.619 0-1.238-.004-1.856Z"/><path fill="#fff" d="M42.788 31.976c0-.002-.002-.003-.003-.005.06-.195.121-.388.173-.588C45.2 22.817 39.73 12.69 30.473 7.358c4.056 5.275 5.85 11.664 4.257 17.251a14.1 14.1 0 0 1-.502 1.442c-.205-.13-.464-.276-.81-.46 0 0-9.208-5.453-19.188-15.1-.261-.252 5.322 7.656 11.659 14.078-2.986-1.607-11.306-7.414-16.573-12.038a23 23 0 0 0 2.263 2.992c4.398 5.35 10.135 11.953 17.007 17.022-4.829 2.835-11.651 3.055-18.444.003a28.134 28.134 0 0 1-4.722-2.702c2.875 4.412 7.304 8.219 12.694 10.44 6.428 2.65 12.82 2.471 17.58.044l-.003.006c.021-.014.05-.028.072-.041.195-.101.39-.204.579-.312 2.287-1.14 6.805-2.295 9.23 2.232.594 1.107 1.856-4.763-2.784-10.24Z"/></svg>
